public/img/field-7.svg

<svg width="79" height="72" viewBox="0 0 79 72" fill="none" xmlns="http://www.w3.org/2000/svg">
<g clip-path="url(#clip0)">
<path d="M59.7336 16C58.9824 16.0044 58.246 16.2091 57.6003 16.593V13.8666C57.6003 11.5102 55.6901 9.59998 53.3336 9.59998C50.9772 9.59998 49.067 11.5102 49.067 13.8666V23.4666H44.4419L40.5336 19.5264V15.1232C40.5336 14.1299 40.1378 13.1775 39.4338 12.4769C38.7297 11.7762 37.7755 11.385 36.7822 11.3898C36.1246 11.3938 35.4802 11.5747 34.9166 11.9136C34.392 10.6408 33.2096 9.75995 31.8399 9.62165C30.4703 9.48334 29.1356 10.11 28.3672 11.2522C27.4472 10.5529 26.2541 10.3217 25.1394 10.6267C24.0248 10.9317 23.1156 11.7382 22.6798 12.8085C22.1047 12.4683 21.4493 12.2875 20.7811 12.2848C18.7302 12.2865 17.0681 13.949 17.067 16V23.4666H14.9763V13.8666C14.9763 11.5102 13.0661 9.59998 10.7096 9.59998C8.35322 9.59998 6.44297 11.5102 6.44297 13.8666V16.593C5.79727 16.2091 5.06084 16.0044 4.30964 16C1.95322 16 0.0429688 17.9102 0.0429688 20.2666V36.2666C0.0429688 38.6231 1.95322 40.5333 4.30964 40.5333C5.06084 40.5289 5.79727 40.3242 6.44297 39.9402V42.6666C6.44297 45.0231 8.35322 46.9333 10.7096 46.9333C13.0661 46.9333 14.9763 45.0231 14.9763 42.6666V33.0666H18.1336V33.7386C18.0641 35.6899 18.5501 37.6208 19.5352 39.3066L20.7736 41.4485C21.1005 41.9267 21.2938 42.4835 21.3336 43.0613V52.6613C21.3348 53.6211 22.1125 54.3988 23.0723 54.4H36.651C37.6166 54.3988 38.3991 53.6163 38.4003 52.6506V42.9546C38.4004 42.7661 38.4532 42.5814 38.5528 42.4213L44.0344 33.0666H49.067V42.6666C49.067 45.0231 50.9772 46.9333 53.3336 46.9333C55.6901 46.9333 57.6003 45.0231 57.6003 42.6666V39.9402C58.246 40.3242 58.9824 40.5289 59.7336 40.5333C62.0901 40.5333 64.0003 38.6231 64.0003 36.2666V20.2666C64.0003 17.9102 62.0901 16 59.7336 16ZM36.8184 13.5232C37.6965 13.5296 38.4039 14.2451 38.4003 15.1232L38.4003 17.376L37.8958 16.8672C37.2853 16.2622 36.4608 15.9226 35.6014 15.9221H35.5907C35.4599 15.9262 35.3294 15.9391 35.2003 15.9605V15.1232C35.2003 14.6957 35.3713 14.2859 35.6753 13.9853C35.9793 13.6848 36.391 13.5183 36.8184 13.5232ZM29.867 13.3333C29.867 12.4497 30.5833 11.7333 31.467 11.7333C32.3506 11.7333 33.067 12.4497 33.067 13.3333V17.28C31.9278 19.031 31.9278 21.289 33.067 23.04V23.6853C32.8259 24.3614 32.1847 24.8119 31.467 24.8096C31.0447 24.8138 30.6381 24.6493 30.3377 24.3525C30.0373 24.0556 29.8678 23.6511 29.867 23.2288V13.3333ZM24.5336 14.2122C24.5336 13.3286 25.25 12.6122 26.1336 12.6122C27.0173 12.6122 27.7336 13.3286 27.7336 14.2122V23.2266C27.733 24.1014 27.0244 24.8105 26.1496 24.8117H26.1176C25.2429 24.8105 24.5342 24.1014 24.5336 23.2266V14.2122ZM19.2003 16C19.2003 15.1163 19.9166 14.4 20.8003 14.4C21.684 14.4 22.4003 15.1163 22.4003 16V25.0037C22.4003 25.8874 21.684 26.6037 20.8003 26.6037C19.9166 26.6037 19.2003 25.8874 19.2003 25.0037V16ZM4.30964 38.4C3.13143 38.4 2.1763 37.4448 2.1763 36.2666V20.2666C2.1763 19.0884 3.13143 18.1333 4.30964 18.1333C5.48784 18.1333 6.44297 19.0884 6.44297 20.2666V36.2666C6.44297 37.4448 5.48784 38.4 4.30964 38.4ZM12.843 42.6666C12.843 43.8448 11.8878 44.8 10.7096 44.8C9.53143 44.8 8.5763 43.8448 8.5763 42.6666V13.8666C8.5763 12.6884 9.53143 11.7333 10.7096 11.7333C11.8878 11.7333 12.843 12.6884 12.843 13.8666V42.6666ZM14.9763 25.6H17.1278C17.4209 27.4021 18.9745 28.7278 20.8003 28.7338C22.3117 28.7325 23.6732 27.8199 24.2488 26.4224C24.8134 26.7607 25.4584 26.9412 26.1166 26.945H26.1486C27.1472 26.9451 28.1035 26.5415 28.8003 25.8261C28.812 25.8389 28.8206 25.8538 28.8334 25.8666C29.5336 26.5609 30.4809 26.9488 31.467 26.945C32.8625 26.9419 34.1465 26.1819 34.8206 24.96C34.9272 25.0666 35.0456 25.1861 35.148 25.2906L36.4152 26.5706C34.5018 27.4938 32.8548 28.8887 31.6291 30.624C31.5544 30.7306 31.4958 30.8373 31.4254 30.944H14.9763V25.6ZM36.7224 41.3205C36.4225 41.8127 36.2649 42.3783 36.267 42.9546V52.2666H23.467V43.0613C23.4374 42.1002 23.142 41.166 22.6136 40.3626L21.3656 38.2101C20.5838 36.8536 20.2028 35.3031 20.267 33.7386V33.0666H30.2936C30.1528 33.3973 30.011 33.729 29.8915 34.0768C29.7015 34.6347 29.9998 35.2409 30.5576 35.4309C31.1155 35.6209 31.7218 35.3227 31.9118 34.7648C32.1755 33.9841 32.5205 33.2333 32.9411 32.5248C33.0691 32.2945 33.2116 32.0725 33.3678 31.8602C34.6419 30.045 36.4702 28.6917 38.5784 28.0032C38.9497 27.9101 39.2427 27.6252 39.3461 27.2566C39.4495 26.888 39.3474 26.4923 39.0787 26.2197C39.0787 26.2197 38.2776 25.4069 36.6712 23.7909C36.22 23.329 35.6995 22.8096 35.1118 22.2197L35.0275 22.1344C34.9958 22.087 34.9601 22.0423 34.9208 22.001C34.1254 20.8943 34.1409 19.3992 34.9592 18.3093C35.1225 18.1316 35.3587 18.0391 35.5992 18.0586C35.8918 18.0581 36.1728 18.1731 36.3811 18.3786L44.1603 26.2112C44.7017 26.7494 44.7987 27.5906 44.3939 28.2378L36.7224 41.3205ZM45.2856 30.9333L46.2254 29.3333C46.9124 28.1923 46.9476 26.7737 46.3182 25.6H49.067V30.9333H45.2856ZM55.467 42.6666C55.467 43.8448 54.5118 44.8 53.3336 44.8C52.1554 44.8 51.2003 43.8448 51.2003 42.6666V13.8666C51.2003 12.6884 52.1554 11.7333 53.3336 11.7333C54.5118 11.7333 55.467 12.6884 55.467 13.8666V42.6666ZM61.867 36.2666C61.867 37.4448 60.9118 38.4 59.7336 38.4C58.5554 38.4 57.6003 37.4448 57.6003 36.2666V20.2666C57.6003 19.0884 58.5554 18.1333 59.7336 18.1333C60.9118 18.1333 61.867 19.0884 61.867 20.2666V36.2666Z" fill="#472880"/>
</g>
<path d="M79 63.1551L78.9645 63.125L79 63.0849L78.0984 62.3221L71.7921 56.5215C71.7921 56.5215 71.6807 56.6369 71.4983 56.8075L71.3311 56.9882C69.8926 58.3179 65.2832 62.1666 59.8735 62.2419C59.757 62.2419 59.6404 62.2419 59.5239 62.2419C56.6772 61.9358 53.9015 60.4204 51.0852 57.6154C46.4099 52.9388 41.2078 50.4148 35.6107 50.0786C35.4537 50.0786 35.2966 50.0786 35.1447 50.0786C34.3027 50.0046 33.4568 49.9828 32.612 50.0133C24.1834 50.3546 17.9227 55.9545 15.7953 58.1122C15.3394 58.5186 15.0658 58.8096 15.0051 58.8598L15.0355 58.8899C15.0262 58.9068 15.0142 58.9221 15 58.9351L15.9016 59.6878L22.2079 65.4934L22.5017 65.2024L22.6689 65.0217C24.1023 63.687 28.7168 59.8383 34.1266 59.7681C34.2431 59.7681 34.3545 59.7681 34.471 59.7681C37.3228 60.0741 40.0935 61.5895 42.9098 64.3945C47.5901 69.0511 52.782 71.5751 58.3792 71.9213C58.5311 71.9213 58.6882 71.9213 58.8452 71.9213C59.6872 71.9955 60.5331 72.0172 61.3778 71.9865C69.8065 71.6453 76.0672 66.0504 78.1946 63.8927C78.6353 63.4712 78.9139 63.1852 78.9696 63.125" fill="#EFC825"/>
<defs>
<clipPath id="clip0">
<rect width="64" height="64" fill="white"/>
</clipPath>
</defs>
</svg>

<svg width="79" height="72" fill="none" xmlns="http://www.w3.org/2000/svg"><g clip-path="url(#clip0)"><path d="M59.734 16a4.223 4.223 0 00-2.134.593v-2.726a4.267 4.267 0 10-8.533 0v9.6h-4.625l-3.908-3.94v-4.404a3.733 3.733 0 00-3.752-3.733 3.663 3.663 0 00-1.865.524 3.733 3.733 0 00-6.55-.662 3.714 3.714 0 00-5.687 1.556 3.76 3.76 0 00-1.899-.523A3.717 3.717 0 0017.067 16v7.467h-2.09v-9.6a4.267 4.267 0 10-8.534 0v2.726A4.223 4.223 0 004.31 16a4.267 4.267 0 00-4.267 4.267v16a4.267 4.267 0 004.267 4.266 4.222 4.222 0 002.133-.593v2.727a4.267 4.267 0 108.533 0v-9.6h3.158v.672a10.309 10.309 0 001.401 5.568l1.239 2.142c.326.478.52 1.035.56 1.612v9.6a1.74 1.74 0 001.738 1.739h13.579a1.752 1.752 0 001.75-1.75v-9.695c0-.189.052-.374.152-.534l5.481-9.354h5.033v9.6a4.267 4.267 0 108.533 0V39.94a4.222 4.222 0 002.134.593A4.267 4.267 0 0064 36.267v-16A4.267 4.267 0 0059.734 16zm-22.916-2.477a1.593 1.593 0 011.582 1.6v2.253l-.504-.509a3.262 3.262 0 00-2.295-.945h-.01a2.977 2.977 0 00-.39.038v-.837a1.6 1.6 0 011.617-1.6zm-6.951-.19a1.6 1.6 0 013.2 0v3.947a5.281 5.281 0 000 5.76v.645a1.693 1.693 0 01-1.6 1.125 1.584 1.584 0 01-1.6-1.581v-9.896zm-5.333.88a1.6 1.6 0 013.2 0v9.014a1.587 1.587 0 01-1.584 1.585h-.032a1.586 1.586 0 01-1.584-1.585v-9.015zM19.2 16a1.6 1.6 0 113.2 0v9.004a1.6 1.6 0 11-3.2 0V16zM4.31 38.4a2.133 2.133 0 01-2.134-2.133v-16a2.133 2.133 0 014.267 0v16A2.133 2.133 0 014.31 38.4zm8.533 4.267a2.133 2.133 0 01-4.267 0v-28.8a2.133 2.133 0 014.267 0v28.8zM14.976 25.6h2.152a3.733 3.733 0 003.672 3.134 3.733 3.733 0 003.449-2.312 3.66 3.66 0 001.868.523h.032c.998 0 1.954-.404 2.651-1.119.012.013.02.028.033.04a3.72 3.72 0 002.634 1.079 3.84 3.84 0 003.354-1.985l.327.33 1.267 1.28a12.521 12.521 0 00-4.786 4.054c-.075.107-.133.213-.204.32H14.976V25.6zm21.746 15.72a3.119 3.119 0 00-.455 1.635v9.312h-12.8V43.06a5.203 5.203 0 00-.853-2.698l-1.248-2.153a8.275 8.275 0 01-1.099-4.471v-.672h10.027c-.141.33-.283.662-.402 1.01a1.067 1.067 0 002.02.688 11.76 11.76 0 011.03-2.24c.127-.23.27-.453.426-.665a10.256 10.256 0 015.21-3.857 1.067 1.067 0 00.5-1.783s-.8-.813-2.407-2.43c-.451-.461-.971-.98-1.56-1.57l-.083-.086a1 1 0 00-.107-.133 3.118 3.118 0 01.038-3.692c.163-.177.4-.27.64-.25.293 0 .574.114.782.32l7.78 7.832c.54.538.638 1.38.233 2.027L36.722 41.32zm8.564-10.387l.94-1.6a3.777 3.777 0 00.092-3.733h2.749v5.333h-3.781zm10.181 11.734a2.133 2.133 0 01-4.267 0v-28.8a2.133 2.133 0 114.267 0v28.8zm6.4-6.4a2.133 2.133 0 01-4.267 0v-16a2.133 2.133 0 114.267 0v16z" fill="#472880"/></g><path d="M79 63.155l-.035-.03.035-.04-.902-.763-6.306-5.8s-.111.115-.294.285l-.167.181c-1.438 1.33-6.048 5.179-11.458 5.254h-.35c-2.846-.306-5.622-1.822-8.438-4.627-4.675-4.676-9.877-7.2-15.474-7.536h-.466a20.487 20.487 0 00-2.533-.066c-8.429.342-14.69 5.942-16.817 8.1-.456.406-.73.697-.79.747l.03.03a.177.177 0 01-.035.045l.902.753 6.306 5.805.294-.29.167-.181c1.433-1.335 6.048-5.184 11.458-5.254h.344c2.852.306 5.623 1.822 8.439 4.626 4.68 4.657 9.872 7.181 15.47 7.527h.465c.842.075 1.688.096 2.533.066 8.428-.342 14.69-5.937 16.817-8.094.44-.422.719-.708.775-.768" fill="#EFC825"/><defs><clipPath id="clip0"><path fill="#fff" d="M0 0h64v64H0z"/></clipPath></defs></svg>
